X: 101
T:Will ye lend me your Loom Lass
R:Slow Air
S:Oswald Caledonian Companion 1752
Z:Hans Bracker
M:C
L:1/8
Q:1/4=100
N:Posted to the woodenflute mailing list December 2002
K:G
B2|{A}G2 (FE) E2 (Bd)|e4 (g<e)(d<B)|d4 (ed)(BA)|B3 e (dB)(AB)|!
{A}G2 (FE) E2 (Bd)|e4 (g<e)(daba (g<e)(d<B)|A4 B2:|!
|:zA|{A}G2 (FE) E3 F |G3 A {GA}B2 (AG)|{GA}B2 A2-A3 d|(BAB)d (ede)g|!
G2 (FE) E3 F |(GFG)A B2 (AG)|(AB)(ge) (dB)(AG)|A4 B2:|!
|:zA|(GA)(GF) E2 (Bd)|(eB)(gf) "tr"Te2 dB|(dA)(fe) d2 (BA)|B2 e2 (dB)(AB)|!
G(B/A/) (GF) E2 (GB)|(eB)(gf) (ef)(ga)|b>agf  (dG|A4 B2:|!
|:(ba)|(gf)(e^d) e3 f|gBdg ({ga}b2) a>g|(c'b)(a^g) a3 e|(c'b)(a^g) (ac')(ba)|!
(gf)(e^d) (eB)(fB)|gGBd ({ga}b2) "tr"Ta>g|(ag)(ab) (ge)(d<B)|A4 B2:|
